assets/svg/icons/ghost.svg

<svg xmlns="http://www.w3.org/2000/svg" viewBox="0 0 24 24"><rect x="0" fill="none" width="24" height="24"/><g><path d="M10.203 20.997H3.005v-3.6h7.198v3.6zm10.792-3.6h-7.193v3.6h7.193v-3.6zm.003-7.197H3v3.6h17.998v-3.6zm-7.195-7.197H3.005v3.6h10.798v-3.6zm7.197 0h-3.6v3.6H21v-3.6z"/></g></svg>

<?xml version="1.0" encoding="utf-8"?>
<!-- Generator: Adobe Illustrator 19.2.1, SVG Export Plug-In . SVG Version: 6.00 Build 0)  -->
<svg version="1.1" id="Layer_1" xmlns="http://www.w3.org/2000/svg" xmlns:xlink="http://www.w3.org/1999/xlink" x="0px" y="0px"
	 viewBox="0 0 24 24" style="enable-background:new 0 0 24 24;" xml:space="preserve">
<g>
	<path d="M10.2,21H3v-3.6h7.2V21z M21,17.4h-7.2V21H21V17.4z M21,10.2H3v3.6h18V10.2z M13.8,3H3v3.6h10.8C13.8,6.6,13.8,3,13.8,3z
		 M21,3h-3.6v3.6H21V3z"/>
</g>
</svg>
